assets/icons/24px/stroke/take-off-24px.svg

<svg width="24" height="24" viewBox="0 0 24 24" fill="none" xmlns="http://www.w3.org/2000/svg">
<path fill-rule="evenodd" clip-rule="evenodd" d="M20.5 22L3 22C2.44772 22 2 21.5523 2 21C2 20.4477 2.44771 20 3 20L20.5 20C21.0523 20 21.5 20.4477 21.5 21C21.5 21.5523 21.0523 22 20.5 22Z" fill="white"/>
<path fill-rule="evenodd" clip-rule="evenodd" d="M10.9472 3.84686L14.4245 5.12359C15.0439 5.35101 15.1664 5.38546 15.2803 5.39204C15.3942 5.39862 15.5198 5.37851 16.1613 5.22395L18.8896 4.56655C20.2879 4.22962 21.7051 5.04688 22.1139 6.42591C22.5189 7.79179 21.794 9.23745 20.4572 9.73006L8.52306 14.128C8.48003 14.1439 8.43739 14.1596 8.39511 14.1753C7.79138 14.3987 7.26173 14.5948 6.71988 14.5943C6.19372 14.5938 5.67694 14.455 5.22139 14.1917C4.75218 13.9205 4.38768 13.4801 3.97095 12.9766C3.9415 12.941 3.91178 12.9051 3.88175 12.8689L3.85581 12.8377C3.30623 12.1756 2.86018 11.6382 2.55675 11.2182C2.40199 11.0039 2.25891 10.786 2.15355 10.5716C2.05426 10.3695 1.93955 10.0747 1.95502 9.7329C1.99164 8.92396 2.51243 8.21693 3.27412 7.94207C3.59255 7.82716 3.90424 7.8469 4.12708 7.88104C4.36187 7.91702 4.60988 7.98778 4.85659 8.07041C5.33959 8.23217 5.97245 8.49358 6.74978 8.81468L6.78779 8.83038C6.89963 8.87658 6.95552 8.89944 6.99681 8.91449C6.99792 8.91489 6.99899 8.91528 7.00001 8.91565C7.00103 8.91528 7.0021 8.91489 7.00321 8.91449C7.0445 8.89944 7.10039 8.87658 7.21223 8.83038L7.97957 8.51342C8.2664 8.39494 8.43094 8.32629 8.54607 8.26854C8.55291 8.26512 8.55923 8.26188 8.56506 8.25886C8.56142 8.25338 8.55746 8.2475 8.55314 8.24119C8.48037 8.13491 8.36965 7.99517 8.17606 7.75261L8.1529 7.72359C7.73844 7.20431 7.39638 6.77574 7.15926 6.43587C7.03729 6.26104 6.92183 6.08003 6.83327 5.89886C6.74814 5.72469 6.65415 5.48368 6.64413 5.20252C6.61161 4.28947 7.20195 3.47045 8.07844 3.21262C8.34834 3.13322 8.60671 3.14619 8.79886 3.17188C8.99873 3.19861 9.20697 3.25091 9.41139 3.31135C9.80881 3.42885 10.3236 3.61785 10.9472 3.84686ZM8.73643 5.19876C8.76864 5.2074 8.80451 5.2175 8.84435 5.22928C9.17208 5.32618 9.62552 5.49212 10.2927 5.7371L13.7352 7.00104C13.7672 7.0128 13.7989 7.02449 13.8304 7.0361C14.3007 7.20938 14.7172 7.36284 15.1649 7.38871C15.6126 7.41458 16.044 7.31011 16.5311 7.19215C16.5637 7.18425 16.5966 7.17629 16.6298 7.1683L19.3581 6.5109C19.7217 6.4233 20.0901 6.63579 20.1964 6.99434C20.3017 7.34948 20.1132 7.72535 19.7657 7.85343L7.8315 12.2514C7.02398 12.5489 6.85727 12.5944 6.72166 12.5943C6.54627 12.5941 6.37401 12.5479 6.22216 12.4601C6.10514 12.3925 5.98024 12.2657 5.42068 11.5916C4.83904 10.8908 4.43701 10.4056 4.178 10.047C4.14582 10.0025 4.11744 9.96205 4.09246 9.9254C4.13139 9.93733 4.17428 9.95108 4.22145 9.96688C4.63111 10.1041 5.19984 10.3384 6.02424 10.6789C6.03839 10.6847 6.05292 10.6908 6.0678 10.697C6.22983 10.7644 6.4337 10.8492 6.65383 10.8879C6.88286 10.9281 7.11716 10.9281 7.34619 10.8879C7.56633 10.8492 7.77019 10.7644 7.93222 10.697C7.9471 10.6908 7.96163 10.6847 7.97578 10.6789L8.77148 10.3502C9.01983 10.2477 9.25389 10.151 9.44277 10.0563C9.64247 9.95609 9.88145 9.8158 10.0826 9.58826C10.5064 9.10873 10.6751 8.45534 10.5365 7.83055C10.4707 7.53407 10.3296 7.29561 10.2034 7.11126C10.084 6.93691 9.92602 6.73902 9.75841 6.52904L9.73924 6.50502C9.29586 5.94949 8.99505 5.57178 8.79951 5.2915C8.77573 5.25742 8.75481 5.22659 8.73643 5.19876Z" fill="white"/>
</svg>

<svg width="24" height="24" fill="none" xmlns="http://www.w3.org/2000/svg"><path fill-rule="evenodd" clip-rule="evenodd" d="M20.5 22H3a1 1 0 1 1 0-2h17.5a1 1 0 1 1 0 2zM10.947 3.847l3.478 1.277c.619.227.741.261.855.268.114.007.24-.013.881-.168l2.729-.657a2.703 2.703 0 0 1 1.567 5.163L8.523 14.128l-.128.047c-.604.224-1.133.42-1.675.42a3 3 0 0 1-1.499-.403c-.469-.271-.833-.712-1.25-1.215l-.09-.108-.025-.031c-.55-.662-.996-1.2-1.3-1.62a4.616 4.616 0 0 1-.402-.646 1.733 1.733 0 0 1-.199-.84 2 2 0 0 1 1.32-1.79 1.73 1.73 0 0 1 .852-.061c.235.036.483.107.73.19.483.161 1.115.423 1.893.744l.038.015c.112.047.168.07.209.084L7 8.916l.003-.002c.042-.015.097-.037.21-.084l.767-.317a9.756 9.756 0 0 0 .585-.254 9.757 9.757 0 0 0-.389-.506l-.023-.03c-.415-.519-.757-.947-.994-1.287a4.135 4.135 0 0 1-.326-.537 1.733 1.733 0 0 1-.189-.696 2 2 0 0 1 1.434-1.99c.27-.08.529-.067.72-.041.2.027.409.079.613.14.398.117.913.306 1.536.535zm-2.21 1.352l.107.03c.328.097.782.263 1.449.508l3.442 1.264.095.035c.47.173.887.327 1.335.353.448.026.879-.079 1.366-.197l.099-.024 2.728-.657a.703.703 0 0 1 .408 1.342L7.832 12.251c-.808.298-.975.343-1.11.343a1 1 0 0 1-.5-.134c-.117-.068-.242-.194-.801-.868-.582-.701-.984-1.186-1.243-1.545a5.354 5.354 0 0 1-.086-.122l.13.042c.41.137.978.371 1.802.712l.044.018c.162.067.366.152.586.19.229.041.463.041.692 0 .22-.038.424-.123.586-.19l.044-.018.795-.329c.249-.102.483-.199.672-.294.2-.1.438-.24.64-.468a2 2 0 0 0 .454-1.757 2.063 2.063 0 0 0-.334-.72c-.119-.174-.277-.372-.445-.582l-.019-.024a27.702 27.702 0 0 1-.94-1.213 4.401 4.401 0 0 1-.063-.093z" fill="#fff"/></svg>
